sprinkler.svg

<svg fill="currentColor" viewBox="0 0 24 24"><path d="M11 7h2v2h-2zM5 22h4V10H5zm9-11h2V9h-2zm3-1h2V8h-2zm0-5v2h2V5zm-3 3h2V6h-2zm3 5h2v-2h-2zM5 7h.33L6 9h2l.67-2H9V6H5z"/></svg>

<svg  viewBox="0 0 24 24" fill="currentColor"><path  d="M11 7H13V9H11V7M5 22H9V10H5V22M14 11H16V9H14V11M17 10H19V8H17V10M17 5V7H19V5H17M14 8H16V6H14V8M17 13H19V11H17V13M5 7H5.33L6 9H8L8.67 7H9V6H5V7Z"/></svg>
